X:1023
T:Herbert the Sherbert
C:- Engeland -
O:Ireland
M:6/8
L:1/8
Q:1/4=165
K:G
V:1
"Em" E2 E"C" e3 |cB A"Em" B3 |GB AG FE |"D" FA GF ED |
"Em" E2 E"C" e3 |cB A"Em" B3 |GB AG FE |"D" AG F"Em" E3 :| |:
"Em" EF G"D" F3 |"C" EF G"Bm" F3 |"Em" Be fg fe |"Bm" de dB3 |
"D" de dA3 |de d"Em" G3 |Bd e"G" d BG |"D" AG F"Em" E3
:| |:
K:Eb
"Cm" c2 Bc2 G|c ed c2 B|c2 Bc2 G|c ed "Fm" G3 |
G2 GG2 F|G2 cB2 G|"G" G2 GG2 F|G2 GG3 :| |:
"Cm" g2 fe2 f|g2 g"Fm" g3 |"Bb" f2 ed2 c|B cd "Cm" c2 c|
g2 fe2 f|g2 g"Fm" g3 |"Bb" f2 ed2 c|1 B cd "Cm" c3 "Bb" B2 GG2 F|
"G" G6 |]
